resources/images/collections/one-bar-chart-dark.svg

<svg width="227" height="428" viewBox="0 0 227 428" fill="none" xmlns="http://www.w3.org/2000/svg">
<g filter="url(#filter0_d_26137_145039)">
<path d="M35 144H192V378H35V144Z" fill="url(#paint0_linear_26137_145039)"/>
</g>
<path d="M100.92 184.31C102.003 183.862 103.123 183.358 104.28 182.798C105.475 182.201 106.632 181.566 107.752 180.894C108.872 180.185 109.936 179.457 110.944 178.71C111.989 177.926 112.923 177.105 113.744 176.246H119.568V215.054H111.224V187.11C110.104 187.857 108.853 188.548 107.472 189.182C106.091 189.78 104.747 190.302 103.44 190.75L100.92 184.31Z" fill="white"/>
<path d="M44.7655 132L35 144H192L182.533 132H44.7655Z" fill="#6371FF"/>
<path d="M99.3596 6.56153C99.8161 5.99967 100.556 5.99967 101.013 6.56153L106.885 13.7895C107.342 14.3513 107.342 15.2623 106.885 15.8241L101.013 23.0521C100.556 23.6139 99.8161 23.6139 99.3596 23.0521L93.4869 15.8241C93.0304 15.2623 93.0304 14.3513 93.4869 13.7895L99.3596 6.56153Z" fill="#2735C2"/>
<path d="M124.998 6.56153C125.455 5.99967 126.195 5.99967 126.652 6.56153L132.524 13.7895C132.981 14.3513 132.981 15.2623 132.524 15.8241L126.652 23.0521C126.195 23.6139 125.455 23.6139 124.999 23.0521L119.126 15.8241C118.669 15.2623 118.669 14.3513 119.126 13.7895L124.998 6.56153Z" fill="#2735C2"/>
<path d="M139 6.61503V32.0329C139 33.5512 137.269 34.5081 135.939 33.7752C131.416 31.2824 122.439 27.1304 112.819 27.1304C103.281 27.1304 94.5484 31.2126 90.0957 33.7118C88.7613 34.4607 87 33.5026 87 31.9724V6.43447C87 4.54835 89.4595 3.82597 90.4795 5.41254L98.4063 17.7432C99.1512 18.9019 100.846 18.9 101.588 17.7396L111.242 2.64611C111.982 1.49 113.668 1.48277 114.418 2.6325L124.406 17.957C125.154 19.1051 126.838 19.0998 127.579 17.947L135.521 5.59309C136.54 4.00652 139 4.7289 139 6.61503Z" fill="#5060EE"/>
<circle cx="112.839" cy="19.1785" r="4.16871" fill="#2735C2"/>
<defs>
<filter id="filter0_d_26137_145039" x="0" y="124" width="227" height="304" filterUnits="userSpaceOnUse" color-interpolation-filters="sRGB">
<feFlood flood-opacity="0" result="BackgroundImageFix"/>
<feColorMatrix in="SourceAlpha" type="matrix" values="0 0 0 0 0 0 0 0 0 0 0 0 0 0 0 0 0 0 127 0" result="hardAlpha"/>
<feOffset dy="15"/>
<feGaussianBlur stdDeviation="17.5"/>
<feColorMatrix type="matrix" values="0 0 0 0 0.129412 0 0 0 0 0.133333 0 0 0 0 0.145098 0 0 0 0.08 0"/>
<feBlend mode="normal" in2="BackgroundImageFix" result="effect1_dropShadow_26137_145039"/>
<feBlend mode="normal" in="SourceGraphic" in2="effect1_dropShadow_26137_145039" result="shape"/>
</filter>
<linearGradient id="paint0_linear_26137_145039" x1="113.5" y1="144" x2="113.5" y2="378" gradientUnits="userSpaceOnUse">
<stop stop-color="#3547E9"/>
<stop offset="1" stop-color="#2E0DBE"/>
</linearGradient>
</defs>
</svg>

<svg width="227" height="428" viewBox="0 0 227 428" fill="none" xmlns="http://www.w3.org/2000/svg"><g filter="url(#filter0_d_26137_145039)"><path d="M35 144h157v234H35V144Z" fill="url(#paint0_linear_26137_145039)"/></g><path d="M100.92 184.31a63.033 63.033 0 0 0 3.36-1.512 51.348 51.348 0 0 0 3.472-1.904 52.713 52.713 0 0 0 3.192-2.184 22.725 22.725 0 0 0 2.8-2.464h5.824v38.808h-8.344V187.11a27.222 27.222 0 0 1-3.752 2.072 55.214 55.214 0 0 1-4.032 1.568l-2.52-6.44Z" fill="white"/><path d="M44.766 132 35 144h157l-9.467-12H44.766Z" fill="#6371FF"/><path d="M99.36 6.562c.456-.562 1.196-.562 1.653 0l5.872 7.228c.457.561.457 1.472 0 2.034l-5.872 7.228c-.457.562-1.197.562-1.653 0l-5.873-7.228c-.457-.562-.457-1.473 0-2.034l5.873-7.228ZM124.998 6.562c.457-.562 1.197-.562 1.654 0l5.872 7.228c.457.561.457 1.472 0 2.034l-5.872 7.228c-.457.562-1.197.562-1.653 0l-5.873-7.228c-.457-.562-.457-1.473 0-2.034l5.872-7.228Z" fill="#2735C2"/><path d="M139 6.615v25.418c0 1.518-1.731 2.475-3.061 1.742-4.523-2.493-13.5-6.645-23.12-6.645-9.538 0-18.27 4.083-22.723 6.582-1.335.749-3.096-.21-3.096-1.74V6.434c0-1.886 2.46-2.608 3.48-1.021l7.926 12.33a1.89 1.89 0 0 0 3.182-.003l9.654-15.094a1.89 1.89 0 0 1 3.176-.014l9.988 15.325a1.89 1.89 0 0 0 3.173-.01l7.942-12.354C136.54 4.007 139 4.73 139 6.615Z" fill="#5060EE"/><circle cx="112.839" cy="19.1785" r="4.16871" fill="#2735C2"/><defs><filter id="filter0_d_26137_145039" x="0" y="124" width="227" height="304" filterUnits="userSpaceOnUse" color-interpolation-filters="sRGB"><feFlood flood-opacity="0" result="BackgroundImageFix"/><feColorMatrix in="SourceAlpha" type="matrix" values="0 0 0 0 0 0 0 0 0 0 0 0 0 0 0 0 0 0 127 0" result="hardAlpha"/><feOffset dy="15"/><feGaussianBlur stdDeviation="17.5"/><feColorMatrix type="matrix" values="0 0 0 0 0.129412 0 0 0 0 0.133333 0 0 0 0 0.145098 0 0 0 0.08 0"/><feBlend mode="normal" in2="BackgroundImageFix" result="effect1_dropShadow_26137_145039"/><feBlend mode="normal" in="SourceGraphic" in2="effect1_dropShadow_26137_145039" result="shape"/></filter><linearGradient id="paint0_linear_26137_145039" x1="113.5" y1="144" x2="113.5" y2="378" gradientUnits="userSpaceOnUse"><stop stop-color="#3547E9"/><stop offset="1" stop-color="#2E0DBE"/></linearGradient></defs></svg>
